X:12601
T:Lasses of Duns
T:Lassies of Dunse
R:Jig
C:Trad.
O:Scotland
Z:Paul Hardy's Possible Tunebook 2015 (see www.paulhardy.net). Creative Commons cc by-nc-sa licenced.
M:6/8
L:1/8
Q:3/8=100
K:D
f/g/|"D"afd "A"ecA|"D"d2A A2=c|"G"BGB "D"AGF|"A7"E2E E2|
f/g/|"D"afd "A"ecA|"D"d2A "A"A2G|"D"FDF "A7"ECE|"D"D3 D2:|
|:F/G/|"D"AFA "G"BGB|"D"AFA d2A|"G"BGB "D"AGF|"A7"E3 E2|
f/g/|"D"afa "Em"geg|"D"fdf "A"ecA|"G"B/c/dB "A7"c/d/ec|"D"d3 d2:|

